src/assets/selectIcons/chiave_2.svg

<svg xmlns="http://www.w3.org/2000/svg" viewBox="0 0 512 512"><path d="M0 0h512v512H0z"/><path fill="#fff" d="M356.5 16.375l-174.906 255.22 1.53 1.06 31.97 22.314 175.062-255.5L356.5 16.374zm90.063 62.22c-20.16 29.418-44.122 23.1-68.25 8.905l-48.688 72.875c21.278 16.55 36.46 35.645 18.594 61.72l42.967 29.468 28.907-42.157-14.72-9.156c-3.167 1.844-6.85 2.906-10.78 2.906-11.85 0-21.47-9.62-21.47-21.47 0-11.847 9.62-21.436 21.47-21.436s21.437 9.59 21.437 21.438c0 .195-.025.4-.03.593l15.906 9.907 17.938-26.218-37.688-23.5 11.03-17.72 14.94 9.313 10.093-16.188 24.25 15.094 17.092-24.94-43-29.436zM141.22 268.624c-.31.01-.628.023-.94.063-.827.104-1.652.284-2.53.562-3.51 1.11-7.4 4.066-10.125 7.938-2.724 3.87-4.16 8.487-4 12.125.16 3.637 1.257 6.338 5.25 9.125l76.594 53.468c3.283 2.293 5.727 2.35 9.124 1.156 3.396-1.192 7.323-4.26 10.125-8.218 2.8-3.96 4.352-8.66 4.31-12.188-.04-3.53-.89-5.787-4.374-8.22L148.03 270.97c-2.546-1.78-4.657-2.42-6.81-2.345zM84.28 312.78c-24.354.41-45.504 9.52-57.655 27.25-16.95 24.737-11.868 59.753 9.625 90.283-1.838 4.72-2.875 9.84-2.875 15.187 0 23.243 19.07 42.313 42.313 42.313 8.635 0 16.692-2.625 23.406-7.125 43.208 18.488 88.07 12.714 108.28-16.782 18.695-27.28 10.884-66.912-16.374-99.312l-63.094-44.03c-14.016-5.107-28.07-7.7-41.25-7.783-.792-.004-1.59-.012-2.375 0zm-8.593 109.126c13.143 0 23.594 10.45 23.594 23.594 0 13.143-10.45 23.625-23.593 23.625-13.142 0-23.624-10.482-23.624-23.625s10.482-23.594 23.624-23.594z"/></svg>

<?xml version="1.0" encoding="UTF-8" standalone="no"?>
<!DOCTYPE svg PUBLIC "-//W3C//DTD SVG 1.1//EN" "http://www.w3.org/Graphics/SVG/1.1/DTD/svg11.dtd">
<svg width="100%" height="100%" viewBox="0 0 512 512" version="1.1" xmlns="http://www.w3.org/2000/svg" xmlns:xlink="http://www.w3.org/1999/xlink" xml:space="preserve" xmlns:serif="http://www.serif.com/" style="fill-rule:evenodd;clip-rule:evenodd;stroke-linejoin:round;stroke-miterlimit:2;">
    <rect x="0" y="0" width="512" height="512" style="fill-rule:nonzero;"/>
    <path d="M356.5,16.375L181.594,271.595L183.124,272.655L215.094,294.969L390.156,39.469L356.5,16.374L356.5,16.375ZM446.563,78.595C426.403,108.013 402.441,101.695 378.313,87.5L329.625,160.375C350.903,176.925 366.085,196.02 348.219,222.095L391.186,251.563L420.093,209.406L405.373,200.25C402.206,202.094 398.523,203.156 394.593,203.156C382.743,203.156 373.123,193.536 373.123,181.686C373.123,169.839 382.743,160.25 394.593,160.25C406.443,160.25 416.03,169.84 416.03,181.688C416.03,181.883 416.005,182.088 416,182.281L431.906,192.188L449.844,165.97L412.156,142.47L423.186,124.75L438.126,134.063L448.219,117.875L472.469,132.969L489.561,108.029L446.561,78.593L446.563,78.595ZM141.22,268.624C140.91,268.634 140.592,268.647 140.28,268.687C139.453,268.791 138.628,268.971 137.75,269.249C134.24,270.359 130.35,273.315 127.625,277.187C124.901,281.057 123.465,285.674 123.625,289.312C123.785,292.949 124.882,295.65 128.875,298.437L205.469,351.905C208.752,354.198 211.196,354.255 214.593,353.061C217.989,351.869 221.916,348.801 224.718,344.843C227.518,340.883 229.07,336.183 229.028,332.655C228.988,329.125 228.138,326.868 224.654,324.435L148.03,270.97C145.484,269.19 143.373,268.55 141.22,268.625L141.22,268.624ZM84.28,312.78C59.926,313.19 38.776,322.3 26.625,340.03C9.675,364.767 14.757,399.783 36.25,430.313C34.412,435.033 33.375,440.153 33.375,445.5C33.375,468.743 52.445,487.813 75.688,487.813C84.323,487.813 92.38,485.188 99.094,480.688C142.302,499.176 187.164,493.402 207.374,463.906C226.069,436.626 218.258,396.994 191,364.594L127.906,320.564C113.89,315.457 99.836,312.864 86.656,312.781C85.864,312.777 85.066,312.769 84.281,312.781L84.28,312.78ZM75.687,421.906C88.83,421.906 99.281,432.356 99.281,445.5C99.281,458.643 88.831,469.125 75.688,469.125C62.546,469.125 52.064,458.643 52.064,445.5C52.064,432.357 62.546,421.906 75.688,421.906L75.687,421.906Z" style="fill:rgb(108,108,108);fill-rule:nonzero;"/>
</svg>
